material/.icons/material/image-size-select-actual.svg

<svg xmlns="http://www.w3.org/2000/svg" viewBox="0 0 24 24"><path d="M21 3H3C2 3 1 4 1 5v14a2 2 0 002 2h18c1 0 2-1 2-2V5c0-1-1-2-2-2M5 17l3.5-4.5 2.5 3 3.5-4.5 4.5 6H5z"/></svg>

<?xml version="1.0" encoding="UTF-8"?><!DOCTYPE svg PUBLIC "-//W3C//DTD SVG 1.1//EN" "http://www.w3.org/Graphics/SVG/1.1/DTD/svg11.dtd"><svg xmlns="http://www.w3.org/2000/svg" xmlns:xlink="http://www.w3.org/1999/xlink" version="1.1" id="mdi-image-size-select-actual" width="24" height="24" viewBox="0 0 24 24"><path d="M21,3H3C2,3 1,4 1,5V19A2,2 0 0,0 3,21H21C22,21 23,20 23,19V5C23,4 22,3 21,3M5,17L8.5,12.5L11,15.5L14.5,11L19,17H5Z" /></svg>
